X:1
T:Title
L:1/8
M:6/8
I:linebreak $
K:G
V:1 treble nm="Voice"
V:1
"Am" A2 B cBA | eAB cBA |"Em" GAG FGG | EGG EFG |"Am" A2 B cBA |"Em" e2 d efg |"Dm" age"Em" dBG | %7
"Am" ABA A3 ::"Am" a3 age |"Em" dBd g3 | gag gfe |"Dm" dBA"Em" GAG |"Em" EGG DGG | EFG"Am" ABc | %14
"Em" Bee dBG |"Am" ABA A3 ::"Am" A2 A gAf | A2 A gAf |"Em" G2 G eGd | G2 G edB |"Am" A2 A gAf | %21
 A2 d"Em" efg |"Dm" age"Em" dBG |"Am" ABA A3 :| %24
